svg/24/crosshair-check.svg

<svg width="24" height="24" viewBox="0 0 24 24" fill="currentColor" xmlns="http://www.w3.org/2000/svg"><path d="M2 2.75C2 2.33579 2.33579 2 2.75 2H5.25C5.66421 2 6 2.33579 6 2.75C6 3.16421 5.66421 3.5 5.25 3.5H3.5V5.25C3.5 5.66421 3.16421 6 2.75 6C2.33579 6 2 5.66421 2 5.25V2.75Z"/><path d="M2 21.25V18.75C2 18.3358 2.33579 18 2.75 18C3.16421 18 3.5 18.3358 3.5 18.75L3.5 20.5H5.25C5.66421 20.5 6 20.8358 6 21.25C6 21.6642 5.66421 22 5.25 22H2.75C2.55109 22 2.36032 21.921 2.21967 21.7803C2.07902 21.6397 2 21.4489 2 21.25Z"/><path d="M22 2.75V5.25C22 5.66421 21.6642 6 21.25 6C20.8358 6 20.5 5.66421 20.5 5.25V3.5L18.75 3.5C18.3358 3.5 18 3.16421 18 2.75C18 2.33579 18.3358 2 18.75 2H21.25C21.6642 2 22 2.33579 22 2.75Z"/><path d="M12 7C12.4142 7 12.75 7.33579 12.75 7.75V11.25H15.7086C14.7067 11.5366 13.8037 12.0577 13.0629 12.75H12.75V13.0629C12.0577 13.8037 11.5366 14.7067 11.25 15.7086V12.75H7.75C7.33579 12.75 7 12.4142 7 12C7 11.5858 7.33579 11.25 7.75 11.25H11.25V7.75C11.25 7.33579 11.5858 7 12 7Z"/><path fill-rule="evenodd" clip-rule="evenodd" d="M23 17.5C23 20.5376 20.5376 23 17.5 23C14.4624 23 12 20.5376 12 17.5C12 14.4624 14.4624 12 17.5 12C20.5376 12 23 14.4624 23 17.5ZM20.3536 15.6464C20.5488 15.8417 20.5488 16.1583 20.3536 16.3536L16.8536 19.8536C16.7598 19.9473 16.6326 20 16.5 20C16.3674 20 16.2402 19.9473 16.1464 19.8536L14.1464 17.8536C13.9512 17.6583 13.9512 17.3417 14.1464 17.1464C14.3417 16.9512 14.6583 16.9512 14.8536 17.1464L16.5 18.7929L19.6464 15.6464C19.8417 15.4512 20.1583 15.4512 20.3536 15.6464Z"/></svg>

<svg xmlns="http://www.w3.org/2000/svg" width="24" height="24" fill="currentColor" viewBox="0 0 24 24">
  <path d="M2 2.75A.75.75 0 0 1 2.75 2h2.5a.75.75 0 0 1 0 1.5H3.5v1.75a.75.75 0 0 1-1.5 0v-2.5Zm0 18.5v-2.5a.75.75 0 0 1 1.5 0v1.75h1.75a.75.75 0 0 1 0 1.5h-2.5a.75.75 0 0 1-.75-.75Zm20-18.5v2.5a.75.75 0 0 1-1.5 0V3.5h-1.75a.75.75 0 0 1 0-1.5h2.5a.75.75 0 0 1 .75.75ZM12 7a.75.75 0 0 1 .75.75v3.5h2.959a6.49 6.49 0 0 0-2.646 1.5h-.313v.313a6.49 6.49 0 0 0-1.5 2.646V12.75h-3.5a.75.75 0 0 1 0-1.5h3.5v-3.5A.75.75 0 0 1 12 7Z"/>
  <path fill-rule="evenodd" d="M23 17.5a5.5 5.5 0 1 1-11 0 5.5 5.5 0 0 1 11 0Zm-2.646-1.854a.5.5 0 0 1 0 .708l-3.5 3.5a.5.5 0 0 1-.708 0l-2-2a.5.5 0 0 1 .708-.708l1.646 1.647 3.146-3.147a.5.5 0 0 1 .708 0Z" clip-rule="evenodd"/>
</svg>
